src/img/icons/linkedin.svg

<svg width="32" height="32" viewBox="0 0 32 32" fill="none" xmlns="http://www.w3.org/2000/svg">
<path d="M10.1875 26.4883H5.82812V12.4727H10.1875V26.4883ZM7.98438 10.5977C6.625 10.5977 5.5 9.42578 5.5 8.01953C5.5 7.12891 5.96875 6.28516 6.71875 5.86328C7.51562 5.39453 8.5 5.39453 9.25 5.86328C10.0469 6.28516 10.5156 7.12891 10.5156 8.01953C10.5156 9.42578 9.39062 10.5977 7.98438 10.5977ZM26.4531 26.4883H22.1406V19.6914C22.1406 18.0508 22.0938 15.9883 19.8438 15.9883C17.5938 15.9883 17.2656 17.7227 17.2656 19.5508V26.4883H12.9062V12.4727H17.0781V14.3945H17.125C17.7344 13.3164 19.1406 12.1445 21.25 12.1445C25.6562 12.1445 26.5 15.0508 26.5 18.8008V26.4883H26.4531Z" fill="#131212"/>
</svg>

<svg xmlns="http://www.w3.org/2000/svg" viewBox="0 0 32 32">
  <path fill="currentColor" d="M10.188 26.488h-4.36V12.473h4.36v14.015Zm-2.204-15.89C6.625 10.598 5.5 9.426 5.5 8.02c0-.891.469-1.735 1.219-2.157.797-.468 1.781-.468 2.531 0 .797.422 1.266 1.266 1.266 2.157 0 1.406-1.125 2.578-2.532 2.578Zm18.47 15.89H22.14v-6.797c0-1.64-.047-3.703-2.297-3.703s-2.578 1.735-2.578 3.563v6.937h-4.36V12.473h4.172v1.921h.047c.61-1.078 2.016-2.25 4.125-2.25 4.406 0 5.25 2.907 5.25 6.657v7.687h-.047Z"/>
</svg>
